dist/icons/svgs/signal-alt-solid.svg

<svg xmlns="http://www.w3.org/2000/svg" width="24" height="24" fill="currentcolor" class="icon-signal-alt-solid" viewBox="0 0 24 24">
  <path d="M3.02432 12.6797C2.53682 13.1875 1.78682 13.1484 1.29932 12.6406C0.849315 12.1719 0.886816 11.3516 1.33682 10.8828C4.37432 7.875 8.46183 6 12.9993 6C17.4993 6 21.5869 7.875 24.6244 10.8828C25.0744 11.3516 25.1119 12.1719 24.6619 12.6406C24.1744 13.1484 23.4244 13.1875 22.9369 12.6797C20.3494 10.1016 16.8618 8.5 12.9993 8.5C9.09933 8.5 5.61182 10.1016 3.02432 12.6797ZM12.9993 14.75C10.8618 14.75 8.91183 15.6094 7.41183 16.9375C6.92433 17.4062 6.17433 17.3672 5.72433 16.8594C5.31182 16.3125 5.34932 15.5312 5.83683 15.0625C7.74933 13.3438 10.2618 12.25 12.9993 12.25C15.7368 12.25 18.2118 13.3438 20.1244 15.0625C20.6119 15.5312 20.6869 16.3125 20.2369 16.8594C19.7869 17.3672 19.0369 17.4062 18.5494 16.9375C17.0493 15.6094 15.0993 14.75 12.9993 14.75Z"/>
</svg>

<svg xmlns="http://www.w3.org/2000/svg" width="24" height="24" fill="currentColor" class="icon-signal-alt-solid" viewBox="0 0 24 24">
  <path d="M3.024 12.68c-.487.508-1.237.468-1.725-.04-.45-.468-.412-1.288.038-1.757C4.374 7.875 8.462 6 12.999 6c4.5 0 8.588 1.875 11.625 4.883.45.469.488 1.289.038 1.758-.488.507-1.238.547-1.725.039-2.588-2.578-6.075-4.18-9.938-4.18-3.9 0-7.387 1.602-9.975 4.18M13 14.75c-2.137 0-4.087.86-5.587 2.188a1.157 1.157 0 0 1-1.688-.079c-.412-.547-.375-1.328.113-1.797C7.75 13.344 10.263 12.25 13 12.25s5.213 1.094 7.125 2.813c.488.468.563 1.25.113 1.796-.45.508-1.2.547-1.688.078-1.5-1.328-3.45-2.187-5.55-2.187"/>
</svg>
